svg/mono/diners.svg

<svg height="471" viewBox="0 0 750 471" width="750" xmlns="http://www.w3.org/2000/svg"><path d="m0 40.0047706c0-22.0940247 17.9143492-40.0047706 39.9919369-40.0047706h670.0161261c22.086937 0 39.991937 17.9064659 39.991937 40.0047706v390.9904584c0 22.094025-17.914349 40.004771-39.991937 40.004771h-670.0161261c-22.0869369 0-39.9919369-17.906466-39.9919369-40.004771zm584.933911 196.9425684c0-99.415799-82.980935-168.1332584-173.894987-168.1001926h-78.242184c-92.003041-.0330658-167.730651 68.7048946-167.730651 168.1001926 0 90.930439 75.72761 165.640093 167.730651 165.203624h78.242184c90.914052.435808 173.894987-74.293024 173.894987-165.203624zm-251.766915-154.3249575c-84.069923.0264527-152.194413 68.3074425-152.214213 152.5797415.0198 84.25775 68.14363 152.532127 152.214213 152.55858 84.089723-.026453 152.228073-68.30083 152.239953-152.55858-.01254-84.272299-68.15023-152.5532888-152.239953-152.5797415zm-96.484394 152.5797415c.079199-41.180215 25.746332-76.296153 61.940354-90.250605v180.480048c-36.194022-13.946516-61.861815-49.043275-61.940354-90.229443zm131.015234 90.269122v-180.525679c36.207223 13.920725 61.913955 49.056502 61.979954 90.256557-.065999 41.21262-25.772731 76.321945-61.979954 90.269122z" fill="#393939"/></svg>

<svg width="750" height="471" viewBox="0 0 750 471" version="1.1" xmlns="http://www.w3.org/2000/svg" xmlns:xlink="http://www.w3.org/1999/xlink">
    <!-- Generator: Sketch 48.2 (47327) - http://www.bohemiancoding.com/sketch -->
    <desc>Created with Sketch.</desc>
    <defs></defs>
    <g id="Page-1" stroke="none" stroke-width="1" fill="none" fill-rule="evenodd">
        <g id="diners" fill="#393939" fill-rule="nonzero">
            <path d="M0,40.0047706 C0,17.9107459 17.9143492,0 39.9919369,0 L710.008063,0 C732.095,0 750,17.9064659 750,40.0047706 L750,430.995229 C750,453.089254 732.085651,471 710.008063,471 L39.9919369,471 C17.905,471 0,453.093534 0,430.995229 L0,40.0047706 Z M584.933911,236.947339 C584.933911,137.53154 501.952976,68.8140806 411.038924,68.8471464 L332.79674,68.8471464 C240.793699,68.8140806 165.066089,137.552041 165.066089,236.947339 C165.066089,327.877778 240.793699,402.587432 332.79674,402.150963 L411.038924,402.150963 C501.952976,402.586771 584.933911,327.857939 584.933911,236.947339 Z M333.166996,82.6223815 C249.097073,82.6488342 180.972583,150.929824 180.952783,235.202123 C180.972583,319.459873 249.096413,387.73425 333.166996,387.760703 C417.256719,387.73425 485.395069,319.459873 485.406949,235.202123 C485.394409,150.929824 417.256719,82.6488342 333.166996,82.6223815 Z M236.682602,235.202123 C236.761801,194.021908 262.428934,158.90597 298.622956,144.951518 L298.622956,325.431566 C262.428934,311.48505 236.761141,276.388291 236.682602,235.202123 Z M367.697836,325.471245 L367.697836,144.945566 C403.905059,158.866291 429.611791,194.002068 429.67779,235.202123 C429.611791,276.414743 403.905059,311.524068 367.697836,325.471245 Z" id="Rectangle-1"></path>
        </g>
    </g>
</svg>
